PortableApps/LibreOfficePortable/App/libreoffice/help/media/icon-themes/cmd/lc_graphicfilterinvert.svg

<svg viewBox="0 0 24 24" xmlns="http://www.w3.org/2000/svg"><path d="m3 3v18h18v-18z" fill="#fff"/><path d="m2 2v20h20v-20zm19 1v18h-18l4.5859375-4.585938c-1.1310275-1.131027-1.8359375-2.688172-1.8359375-4.414062 0-3.45178 2.7982204-6.25 6.25-6.25 1.72589 0 3.283035.70491 4.414062 1.8359375zm-4.585938 4.5859375-8.8281245 8.8281245c1.1310275 1.131028 2.6881725 1.835938 4.4140625 1.835938 3.45178 0 6.25-2.79822 6.25-6.25 0-1.72589-.70491-3.283035-1.835938-4.4140625z" fill="#808080"/></svg>

<svg viewBox="0 0 24 24" xmlns="http://www.w3.org/2000/svg">
  <path
     style="fill:#ffffff"
     d="M 3 3 L 3 21 L 21 21 L 21 3 L 3 3 z "
     />
  <path
     d="M 2,2 V 22 H 22 V 2 Z M 21,3 V 21 H 3 L 7.5859375,16.414062 C 6.45491,15.283035 5.75,13.72589 5.75,12 5.75,8.54822 8.5482204,5.75 12,5.75 c 1.72589,0 3.283035,0.70491 4.414062,1.8359375 z M 16.414062,7.5859375 7.5859375,16.414062 C 8.716965,17.54509 10.27411,18.25 12,18.25 c 3.45178,0 6.25,-2.79822 6.25,-6.25 0,-1.72589 -0.70491,-3.283035 -1.835938,-4.4140625 z"
     style="fill:#808080"
     />
</svg>
